X: 110
T: Artık Ne Siyah...
C: Artaki Candan
O: Turkey
F: http://compmusic.upf.edu/node/140
N: kurdilihicazkar--sarki--senginsemai--artik_ne--artaki_candan
N: makam= kurdilihicazkar
N: form= sarki
N: usul= senginsemai = 6/4
M: 6/4
L: 1/16
K: C _B _e _A 
Q: 1/4=60
%%MIDI tuningsystem comma53
g4 (3f_2/4efe3/2d/ d4 (3fefd3/2c/ g8  | \
w:  ARANAĞME  | 
(3agf_2/4ef gf(3agf f3/2_3/4e/(3gfe e3/2d/(3fed d8  | 
w:   | 
(3edc(3def (3gfe(3edc (3gfe(3edc (3cBc(3edc c4 dBAG  | 
w:   | 
G2(3edB (3def(3edc G2AB c3/2B/AG G8  | \
w:   | 
g4 (3f_2/4efe3/2d/ d4 (3fefd3/2c/ g8  | 
w:  ARANAĞME  | 
(3agf_2/4ef gf(3agf f3/2_3/4e/(3gfe e3/2d/(3fed d8  | 
w:   | 
(3edc(3def (3gfe(3edc (3gfe(3edc (3cBc(3edc c4 dBAG  | 
w:   | 
G2(3edB (3def(3edc G2AB c3/2B/AG G8  | \
w:   | 
g4 f_2/4e/d/e/f/g ga/g/f/e/f (3ga_1/4ba3/2g/ g6z2  | 
w:  Ar tık  *  *  *  *  *  ne  *  *  *  *  *  si *  *  *  *  yah   | 
(3agf(3ga_1/4b (3c'd'c'(3bag g3f f_3/4e_7/8ed d6z2  | \
w:  göz *  *  *  *  *  *  *  *  *  *  *  le *  ri *  *  *  nin   | 
b4 b3_2/4a _7/8a3g g_a/g/f/_2/4e/f g2ag (3c'_1/4ba(3bag  | 
w:  göl *  *  ge *  si  *  *  *  *  *  kal  | 
g8 ga/b/a/g/f _2/4e3/2d/ef g8  | c'/d'/d'/c'/(3_1/4bag gg/f/_2/4e/d/e f2g2 a/g/g/b/ag g6z2  | 
w:  dı   SAZ  |  Kal *  *  *  *  *  *  bim  *  *  *  *  *  o  *  bü *  *  *  *  *  yük   | 
a3g ag/f/_2/4ef g2a/g/f (3ffeed d6z2  | \
w:  aş *  *  *  *  *  *  ka  *  *  *  be *  *  *  *  del   | 
(3ddc(3def (3ggf(3edc (3BcB(3AGF c4 G2AB cc/B/AG  | 
w:  kin *  *  *  *  *  *  *  *  *  *  *  le *  *  *  *  *  re  dal  | 
G8 g3f _2/4e3/2d/ef g8  | c'/d'/d'/c'/(3_1/4bag gg/f/_2/4e/d/e f2g2 a/g/g/b/ag g6z2  | 
w:  dı   SAZ  |  Kal *  *  *  *  *  *  bim  *  *  *  *  *  o  *  bü *  *  *  *  *  yük   | 
a3g ag/f/_2/4ef g2a/g/f (3ffeed d6z2  | \
w:  aş *  *  *  *  *  *  ka  *  *  *  be *  *  *  *  del   | 
(3ddc(3def (3ggf(3edc (3BcB(3AGF c4 G2AB cc/B/AG  | 
w:  kin *  *  *  *  *  *  *  *  *  *  *  le *  *  *  *  *  re  dal  | 
G8 f4 _2/4efg3/2f/ f4 f3/4a1/4g/f/e/_3/4d/c  | \
w:  dı   SAZ  | 
f4 f4 g4 agf_2/4e f2e2 _2/4d2c2  | 
w:  Lâ net  o  gü *  *  *  zel   | 
c2(3_3/4dcB _2/4ABc=d c2B2 A2G2 G2_AG F_2/4EF2  | \
w:  göz *  *  *  *  *  *  *  le *  *  ri nin   | 
f2g6 g4 (3agf_2/4ef g2ag (3c'_1/4ba(3bag  | 
w:  nû *  ru na  *  *  *  *  yağ  | 
g8 ga/b/a/g/f =e3/2d/ef g8  | c'/d'/d'/c'/(3_1/4bag gg/f/_2/4e/d/e f2g2 a/g/g/b/ag g6z2  | 
w:  sın  SAZ  |  Kal *  *  *  *  *  *  bim  *  *  *  *  *  o  *  bü *  *  *  *  *  yük   | 
a3g ag/f/_2/4ef g2a/g/f (3ffeed d6z2  | \
w:  aş *  *  *  *  *  *  ka  *  *  *  be *  *  *  *  del   | 
(3ddc(3def (3ggf(3edc (3BcB(3AGF c4 G2AB cc/B/AG  | 
w:  kin *  *  *  *  *  *  *  *  *  *  *  le *  *  *  *  *  re  dal  | 
G8 g3f _2/4e3/2d/ef g8  | c'/d'/d'/c'/(3_1/4bag gg/f/_2/4e/d/e f2g2 a/g/g/b/ag g6z2  | 
w:  dı   SAZ  |  Kal *  *  *  *  *  *  bim  *  *  *  *  *  o  *  bü *  *  *  *  *  yük   | 
a3g ag/f/_2/4ef g2a/g/f (3ffeed d6z2  | \
w:  aş *  *  *  *  *  *  ka  *  *  *  be *  *  *  *  del   | 
(3ddc(3def (3ggf(3edc (3BcB(3AGF c4 G2AB cc/B/AG  | 
w:  kin *  *  *  *  *  *  *  *  *  *  *  le *  *  *  *  *  re  dal  | 
G4 ee/d/cd Bc/B/A/G/A Bc/B/AG G8  | |


